X:1
T:St. Augustine, SM
T:St. Augustine, SM
T:Chorale Songs for Four Voices, 1769
T:Public Domain Courtesy of the Cyber Hymnal™
C:Chorale Songs for Four Voices, 1769
Z:Public Domain
Z:Courtesy of the Cyber Hymnal™
%%score ( 1 2 ) ( 3 4 )
L:1/8
Q:1/4=115
M:4/4
K:G
V:1 treble 
V:2 treble 
V:3 bass 
V:4 bass 
V:1
 D2 | [EG]2 [FA]2 [GB]2 [FA]2 x | G6 [DB]2 | [Fd]2 [Gd]2 [Ec]2 [DB]2 | [DA]6 [^DB]2 | %5
 [B,G]2 [Ec]2 [DB]2 [DA]2 | [DG]2 [^CG]2 [DA]2 [FA]2 | [GB]2 [Gc]2 [GB]2 [FA]2 x | G6 |] %9
V:2
 D2 | x9 | G6 x2 | x8 | x8 | x8 | x8 | x9 | G6 |] %9
V:3
 [G,B,]2 | [E,B,]2 [D,D]2 D3 z C | [G,,B,]6 G,2 | [D,A,]2 [B,,G,]2 [C,G,]2 [G,,G,]2 | %4
 [D,F,]6 [B,,F,]2 | [E,G,]2 [C,G,]2 G,2 [F,A,]2 | [E,B,]2 (A,G,) [D,F,]2 [D,D]2 | %7
 [G,D]2 [C,E]2 D3 z C | [G,,B,]6 |] %9
V:4
 x2 | x4 (B,,C,) D,2 x | x6 G,2 | x8 | x8 | x4 G,2 x2 | x2 E,2 x4 | x4 D,2 D,2 x | x6 |] %9

